32x32/apps/gcolor3.svg

<svg height="32" width="32" xmlns="http://www.w3.org/2000/svg"><circle cx="16" cy="17" opacity=".2" r="14"/><path d="m28.124 9a14 14 0 0 1 0 14l-12.124-7z" fill="#3584e4"/><path d="m28.124 23a14 14 0 0 1 -12.124 7v-14z" fill="#a347ba"/><path d="m16 2a14 14 0 0 1 12.124 7l-12.124 7z" fill="#33d17a"/><path d="m3.876 9a14 14 0 0 1 12.124-7v14z" fill="#f6d32d"/><path d="m3.876 23a14 14 0 0 1 0-14l12.124 7z" fill="#ff7800"/><path d="m16 2a14 14 0 0 0 -14 14 14 14 0 0 0 .021.586 14 14 0 0 1 13.979-13.586 14 14 0 0 1 13.979 13.414 14 14 0 0 0 .021-.414 14 14 0 0 0 -14-14z" fill="#f4f4f7" opacity=".2"/><path d="m16 30a14 14 0 0 1 -12.124-7l12.124-7z" fill="#ed333b"/><path d="m22.868 8.41-8.506 8.504c-.68 1.021-.34 2.043-1.362 3.064l1.022 1.022c1.022-1.022 2.403-.67 3.065-1.362l8.506-8.505z" opacity=".2"/><path d="m22.868 7.41-8.506 8.504c-.68 1.021-.34 2.043-1.362 3.064l1.022 1.022c1.022-1.022 2.403-.67 3.065-1.362l8.506-8.505z" fill="#f4f4f7"/><path d="m27.87 4a2.13 2.13 0 0 0 -1.514.634l-2.192 2.19-1.37-1.37c-.319-.319-.638 0-.638 0l-1.014 1.016s-.32.319 0 .638l5.75 5.751c.32.32.64 0 .64 0l1.013-1.014c.32-.32 0-.639 0-.639l-1.37-1.37 2.18-2.178.012-.012a2.13 2.13 0 0 0 .633-1.516 2.13 2.13 0 0 0 -2.13-2.13z" opacity=".1"/><path d="m27.87 3a2.13 2.13 0 0 0 -1.514.634l-2.192 2.19-1.37-1.37c-.319-.319-.638 0-.638 0l-1.014 1.016s-.32.319 0 .638l5.75 5.751c.32.32.64 0 .64 0l1.013-1.014c.32-.32 0-.639 0-.639l-1.37-1.37 2.18-2.178.012-.012a2.13 2.13 0 0 0 .633-1.516 2.13 2.13 0 0 0 -2.13-2.13z" fill="#17191e"/></svg>

<svg height="32" width="32" xmlns="http://www.w3.org/2000/svg">
    <circle cx="16" cy="17" opacity=".2" r="14"/>
    <path d="M28.124 9a14 14 0 0 1 0 14L16 16z" fill="#3584e4"/>
    <path d="M28.124 23A14 14 0 0 1 16 30V16z" fill="#a347ba"/>
    <path d="M16 2a14 14 0 0 1 12.124 7L16 16z" fill="#33d17a"/>
    <path d="M3.876 9A14 14 0 0 1 16 2v14z" fill="#f6d32d"/>
    <path d="M3.876 23a14 14 0 0 1 0-14L16 16z" fill="#ff7800"/>
    <path d="M16 2A14 14 0 0 0 2 16a14 14 0 0 0 .021.586A14 14 0 0 1 16 3a14 14 0 0 1 13.979 13.414A14 14 0 0 0 30 16 14 14 0 0 0 16 2z" fill="#f4f4f7" opacity=".2"/>
    <path d="M16 30a14 14 0 0 1-12.124-7L16 16z" fill="#ed333b"/>
    <path d="m22.868 8.41-8.506 8.504c-.68 1.021-.34 2.043-1.362 3.064L14.022 21c1.022-1.022 2.403-.67 3.065-1.362l8.506-8.505z" opacity=".2"/>
    <path d="m22.868 7.41-8.506 8.504c-.68 1.021-.34 2.043-1.362 3.064L14.022 20c1.022-1.022 2.403-.67 3.065-1.362l8.506-8.505z" fill="#f4f4f7"/>
    <path d="M27.87 4a2.13 2.13 0 0 0-1.514.634l-2.192 2.19-1.37-1.37c-.319-.319-.638 0-.638 0L21.142 6.47s-.32.319 0 .638l5.75 5.751c.32.32.64 0 .64 0l1.013-1.014c.32-.32 0-.639 0-.639l-1.37-1.37 2.18-2.178.012-.012A2.13 2.13 0 0 0 30 6.13 2.13 2.13 0 0 0 27.87 4z" opacity=".1"/>
    <path d="M27.87 3a2.13 2.13 0 0 0-1.514.634l-2.192 2.19-1.37-1.37c-.319-.319-.638 0-.638 0L21.142 5.47s-.32.319 0 .638l5.75 5.751c.32.32.64 0 .64 0l1.013-1.014c.32-.32 0-.639 0-.639l-1.37-1.37 2.18-2.178.012-.012A2.13 2.13 0 0 0 30 5.13 2.13 2.13 0 0 0 27.87 3z" fill="#17191e"/>
</svg>
